X:1
T:Hamul, LM
T:Hamul, LM
T:Lowell Mason, 1839
T:Public Domain Courtesy of the Cyber Hymnal™
C:Lowell Mason, 1839
Z:Public Domain
Z:Courtesy of the Cyber Hymnal™
%%score ( 1 2 ) ( 3 4 )
L:1/8
Q:1/4=150
M:2/2
K:C
V:1 treble 
V:2 treble 
V:3 bass 
V:4 bass 
V:1
 G2 | c4 E4 | A6 F2 | D4 G4 | C2 C2 D2 E2 | F6 E2 | D4 [D^F]4 | [DG]6 [EG]2 | %8
 ([EG]2 [FA]2) ([EG]2 [DF]2) | [CE]4 ([Ec]2 [GB]2) | ([FA]2 [EG]2) ([DF]2 [CE]2) | %11
 ([CE]4 [B,D]2) [CE]2 | [CA]3 [FA] [FA]2 [FA]2 | [Fc]4 [FA]4 | [EG]2 [Ec]2 [Fc]2 [Gc]2 | %15
 !>![Ac]4 !>![Ac]4 | !>![Gc]4 B4 | [Ec]6 |] %18
V:2
 G2 | c4 E4 | A6 F2 | D4 G4 | C2 C2 D2 E2 | F6 E2 | D4 x4 | x8 | x8 | x8 | x8 | x8 | x8 | x8 | x8 | %15
 x8 | x4 (G2 F2) | x6 |] %18
V:3
 G,2 | C4 E,4 | A,6 F,2 | D,4 G,4 | C,2 C,2 D,2 E,2 | F,6 E,2 | D,4 [D,A,]4 | [G,,B,]6 z2 | z8 | %9
 z8 | z8 | z6 [C,C]2 | [F,C]3 [F,C] [F,C]2 [F,C]2 | [A,C]4 [F,C]4 | [C,C]2 [C,C]2 [D,C]2 [E,C]2 | %15
 !>![F,C]4 !>![^F,_E]4 | !>![G,E]4 [G,,D]4 | [C,C]6 |] %18
V:4
 G,2 | C4 E,4 | A,6 F,2 | D,4 G,4 | C,2 C,2 D,2 E,2 | F,6 E,2 | D,4 x4 | x8 | x8 | x8 | x8 | x8 | %12
 x8 | x8 | x8 | x8 | x8 | x6 |] %18

